images/block_icon/start_icon_hand.svg

<?xml version="1.0" encoding="UTF-8"?>
<svg width="28px" height="28px" viewBox="0 0 28 28" version="1.1" xmlns="http://www.w3.org/2000/svg" xmlns:xlink="http://www.w3.org/1999/xlink">
    <title>3C1B71EB-8FBA-4DA7-9167-817AF9124573</title>
    <g id="Page-1" stroke="none" stroke-width="1" fill="none" fill-rule="evenodd">
        <g id="230808_ws비디오감지개선_block" transform="translate(-804.000000, -80.000000)">
            <g id="Group-28-Copy" transform="translate(801.000000, 77.000000)">
                <g id="Group-13-Copy-2" transform="translate(3.000000, 3.000000)">
                    <circle id="Oval-9-Copy" stroke="#F2F2F2" fill="#FFFFFF" fill-rule="nonzero" cx="14" cy="14" r="13.5"></circle>
                    <path d="M12.7868466,5.03309648 C13.1046859,4.95220827 13.4589818,5.02088694 13.7162314,5.22488801 C13.9755349,5.42329304 14.1290631,5.74023237 14.1429269,6.06276773 C14.3046707,8.50772821 14.4638471,10.9526887 14.6276447,13.3976492 C14.6296986,13.5736701 14.8006849,13.715606 14.9752655,13.7013615 C15.1462517,13.7115361 15.3054281,13.5665478 15.3049147,13.396123 C15.400934,11.3739178 15.4907916,9.3517127 15.584757,7.32950755 C15.5970804,7.10668344 15.5862975,6.87419344 15.6771821,6.66459633 C15.807604,6.33646493 16.1136335,6.08515188 16.4622812,6.0144383 C16.8047672,5.93965486 17.1826828,6.03783991 17.4378785,6.27796088 C17.6751027,6.49315403 17.8019303,6.81568939 17.7860127,7.13262871 C17.6905069,9.25556256 17.5898663,11.3779877 17.4953874,13.5004128 C17.4707407,13.694748 17.6550773,13.8656816 17.8476294,13.8468585 C18.0227234,13.8646641 18.1834402,13.7206933 18.1993579,13.5502684 C18.3985851,11.9202948 18.5875429,10.2887949 18.7857432,8.65831254 C18.8273345,8.29762237 19.0599374,7.9633862 19.3906136,7.80415344 C19.7238571,7.63728972 20.1418235,7.66374372 20.4555551,7.86164003 C20.8288494,8.08751652 21.0547772,8.53774333 20.9885393,8.96914709 C20.5849501,12.0525648 20.1859821,15.1364912 19.7649349,18.2173653 C19.6144875,19.2500889 19.4373395,20.297057 18.9978073,21.253471 C18.7169379,21.8552996 18.2825404,22.4174472 17.6715084,22.7170897 C17.2689461,22.9200733 16.8129827,23 16.363181,22.9989266 C14.8402222,23 13.31675,22.9989266 11.7932777,22.9994353 C11.5699173,22.9989266 11.343476,23.0091012 11.1237099,22.9607718 C10.6816103,22.8686915 10.2836693,22.635184 9.93245421,22.3614868 C9.24850914,21.8151099 8.69755338,21.128832 8.16713652,20.4405191 C7.10732974,19.0272648 6.13532672,17.5519453 5.19772634,16.0578028 C4.98463534,15.7271278 4.93842284,15.295724 5.08527591,14.9304552 C5.23315593,14.5463634 5.59874819,14.2635091 6.00182392,14.1831296 C6.28115284,14.1297129 6.56921079,14.2131447 6.8079754,14.358133 C7.11195099,14.5412761 7.35379643,14.8053074 7.59307451,15.0622165 C7.97509789,15.4824282 8.34274404,15.9148494 8.70525547,16.3513405 C8.83567743,16.5085383 9.00820411,16.6570878 9.22180858,16.671841 C9.3881736,16.6825243 9.53656709,16.5680599 9.60229154,16.4225628 C9.68496057,16.2567166 9.66544863,16.0674687 9.65261182,15.8894129 C9.60177807,15.0596729 9.49857014,14.2345114 9.39382179,13.4098587 C9.10935815,11.5519736 8.75300839,9.70528064 8.42387266,7.85502652 C8.35866168,7.46635615 8.53118837,7.05224924 8.84902771,6.81772431 C9.16275927,6.57963827 9.61050709,6.53792234 9.96685685,6.7037686 C10.2852097,6.84570451 10.5255147,7.14636444 10.584564,7.48823158 C10.918321,9.37714924 11.2505375,11.2670844 11.5817272,13.1565108 C11.6079143,13.2943768 11.6156163,13.4607318 11.7455248,13.5482335 C11.9853164,13.6952567 12.4407663,13.5828272 12.4120118,13.2470648 C12.2677261,10.9908435 12.1183057,8.73462217 11.9719661,6.47840083 C11.9601562,6.24896322 11.9195919,6.01240337 11.9873703,5.78754433 C12.0895513,5.41617081 12.4109849,5.12059819 12.7868466,5.03309648" id="Fill-1" fill="#8222FF"></path>
                </g>
            </g>
        </g>
    </g>
</svg>

<svg width="28" height="28" viewBox="0 0 28 28" xmlns="http://www.w3.org/2000/svg">
    <g fill="none" fill-rule="evenodd">
        <circle stroke="#F2F2F2" fill="#FFF" fill-rule="nonzero" cx="14" cy="14" r="13.5"/>
        <path d="M12.787 5.033c.318-.08.672-.012.93.192.259.198.412.515.426.838.162 2.445.32 4.89.485 7.335.002.176.173.318.347.303.171.01.33-.134.33-.305.096-2.022.186-4.044.28-6.066.012-.223.001-.456.092-.665.13-.329.437-.58.785-.65.343-.075.72.023.976.263.237.215.364.538.348.855-.095 2.123-.196 4.245-.29 6.367-.025.195.16.366.352.347a.332.332 0 0 0 .351-.297c.2-1.63.389-3.261.587-4.892.041-.36.274-.695.605-.854.333-.167.75-.14 1.065.058.373.226.599.676.533 1.107-.404 3.084-.803 6.167-1.224 9.248-.15 1.033-.328 2.08-.767 3.036-.281.602-.715 1.164-1.326 1.464-.403.203-.859.283-1.309.282h-4.57c-.223 0-.45.01-.67-.038-.441-.092-.84-.326-1.19-.6-.684-.546-1.235-1.232-1.766-1.92-1.06-1.414-2.032-2.89-2.97-4.383a1.251 1.251 0 0 1-.112-1.128c.148-.384.514-.666.917-.747.28-.053.567.03.806.175.304.183.546.447.785.704.382.42.75.853 1.112 1.29.13.157.303.305.517.32.166.01.315-.104.38-.25.083-.165.063-.355.05-.533-.05-.83-.153-1.654-.258-2.48-.285-1.857-.641-3.704-.97-5.554a1.092 1.092 0 0 1 .425-1.037c.314-.238.762-.28 1.118-.114.318.142.559.442.618.784.333 1.89.666 3.78.997 5.669.026.137.034.304.164.391.24.147.695.035.666-.3-.144-2.257-.294-4.513-.44-6.77-.012-.229-.052-.466.015-.69.103-.372.424-.667.8-.755" fill="#8222FF"/>
    </g>
</svg>
